images/footer/sun-mobile.svg

<svg width="38" height="38" viewBox="0 0 38 38" fill="none" xmlns="http://www.w3.org/2000/svg">
<path d="M13.3233 6.69803C14.818 7.9402 17.0918 7.33092 17.7652 5.50782C18.1889 4.36081 19.8111 4.36081 20.2348 5.50782C20.9082 7.33092 23.182 7.9402 24.6767 6.69803C25.6171 5.91652 27.0221 6.72767 26.8155 7.93283C26.4871 9.84836 28.1516 11.5129 30.0672 11.1845C31.2723 10.9779 32.0835 12.3829 31.302 13.3233C30.0598 14.818 30.6691 17.0918 32.4922 17.7652C33.6392 18.1889 33.6392 19.8111 32.4922 20.2348C30.6691 20.9082 30.0598 23.182 31.302 24.6767C32.0835 25.6171 31.2723 27.0221 30.0672 26.8155C28.1516 26.4871 26.4871 28.1516 26.8155 30.0672C27.0221 31.2723 25.6171 32.0835 24.6767 31.302C23.182 30.0598 20.9082 30.6691 20.2348 32.4922C19.8111 33.6392 18.1889 33.6392 17.7652 32.4922C17.0918 30.6691 14.818 30.0598 13.3233 31.302C12.3829 32.0835 10.9779 31.2723 11.1845 30.0672C11.5129 28.1516 9.84836 26.4871 7.93283 26.8155C6.72767 27.0221 5.91652 25.6171 6.69803 24.6767C7.9402 23.182 7.33092 20.9082 5.50782 20.2348C4.36081 19.8111 4.36081 18.1889 5.50782 17.7652C7.33092 17.0918 7.9402 14.818 6.69803 13.3233C5.91652 12.3829 6.72767 10.9779 7.93283 11.1845C9.84836 11.5129 11.5129 9.84836 11.1845 7.93283C10.9779 6.72767 12.3829 5.91652 13.3233 6.69803Z" stroke="#fff" stroke-width="1.5"/>
</svg>

<svg width="38" height="38" fill="none" xmlns="http://www.w3.org/2000/svg"><path d="M13.323 6.698a2.816 2.816 0 0 0 4.442-1.19c.424-1.147 2.046-1.147 2.47 0a2.816 2.816 0 0 0 4.442 1.19c.94-.781 2.345.03 2.139 1.235a2.816 2.816 0 0 0 3.251 3.252c1.205-.207 2.017 1.198 1.235 2.138a2.816 2.816 0 0 0 1.19 4.442c1.147.424 1.147 2.046 0 2.47a2.816 2.816 0 0 0-1.19 4.442c.782.94-.03 2.345-1.235 2.139a2.816 2.816 0 0 0-3.252 3.251c.207 1.205-1.198 2.017-2.138 1.235a2.816 2.816 0 0 0-4.442 1.19c-.424 1.147-2.046 1.147-2.47 0a2.816 2.816 0 0 0-4.442-1.19c-.94.782-2.345-.03-2.139-1.235a2.816 2.816 0 0 0-3.251-3.252c-1.205.207-2.016-1.198-1.235-2.138a2.816 2.816 0 0 0-1.19-4.442c-1.147-.424-1.147-2.046 0-2.47a2.816 2.816 0 0 0 1.19-4.442c-.781-.94.03-2.345 1.235-2.139a2.816 2.816 0 0 0 3.252-3.251c-.207-1.205 1.198-2.016 2.138-1.235z" stroke="#fff" stroke-width="1.5"/></svg>
